!!!COM: Haydn, Franz Joseph
!!!OTL: String Quartet in G Major
!!!OPS: Opus 64
!!!ONM: No. 4
!!!OMD: Minuetto
!!!OMV: 2
!!!SCT: H III:66
!!!SCA: Thematisch-bibliographisches Werkevererzeichnis (A. van Hoboken)
!!!YOR: Dover Edition; reprint of Eulenburg Edition
!!!ENC: Frances Bennion
!!!CDT: 1732/3/31/-1809/5/31/
!!!CNT: Oesterreich
!!!YEC: Copyright (c) 1994, 2000 Center for Computer Assisted Research in the Humanities
!!!YEM: Rights to all derivative editions reserved.
!!!YEM: Refer to licensing agreement for further details.
!!!YEN: United States of America
**kern	**kern	**kern	**kern
*k[f#]	*k[f#]	*k[f#]	*k[f#]
*G:	*G:	*G:	*G:
*clefF4	*clefC3	*clefF	*clefF
*M3/4	*M3/4	*M3/4	*M3/4
2r	2r	2r	2r
4r	4r	4r	8dd
.	.	.	8b
=1	=1	=1	=1
4r	4r	4r	8f#
.	.	.	8g
4G	4B	4d	4d
4G	4B	4d	8bb
.	.	.	8gg
=2	=2	=2	=2
4r	4r	4r	8ff#
.	.	.	8aa
4D	4A	4f#	4cc
4D	4A	4f#	8a
.	.	.	8cc
=3	=3	=3	=3
8G	8G	8g	16cc
.	.	.	16b
8r	8r	8r	8r
8E	8E	8g	16dd
.	.	.	16cc
8r	8r	8r	8r
8C	8C	8g	16ee
.	.	.	16cc
8r	8r	8r	8r
=4	=4	=4	=4
4D	4D	2f#	2a
4d	2r	.	.
4r	.	4r	4d
=5	=5	=5	=5
4r	4r	4r	2g
4BB	4G	4d	.
4BB	4f	4d	8b
.	.	.	8g#
=6	=6	=6	=6
4C	4e	4e	8b
.	.	.	8a
2r	2r	4r	4cc
.	.	8e	8cc
.	.	8d	8b
=7	=7	=7	=7
4D	2.f#	2.c	4a
4D	.	.	8a
.	.	.	8g
4D	.	.	8a
.	.	.	8d
=8	=8	=8	=8
4GG	4g	4B	4g
4G	2r	4r	2r
4r	.	8cc	.
.	.	8b	.
=9	=9	=9	=9
4C	2f#	4a	2r
4C	.	8a	.
.	.	8g	.
4C	4d	8a	4ff#
.	.	8d	.
=10	=10	=10	=10
4BB	4d	4g	8gg
.	.	.	8aa
4GG	4g	4r	8bb
.	.	.	8aa
4r	4r	8b	8gg
.	.	8a	8ff#
=11	=11	=11	=11
4AA	2.c#	4g	4ee
4AA	.	8g	8ee
.	.	8f#	8dd
4AA	.	8g	8ee
.	.	8e	8a
=12	=12	=12	=12
4DD	4d	8f#	2dd
.	.	8a	.
4D	4f#	8dd	.
.	.	8ff#	.
4D	4f#	8aa	8fff#
.	.	8ff#	8ddd
=13	=13	=13	=13
4DD	8e	2.gg	8ccc#
.	8c#	.	8eee
4D	8e	.	8ggg
.	8g	.	8eee
4D	8e	.	8ccc#
.	8c#	.	8eee
=14	=14	=14	=14
4DD	4d	2ff#	4ddd
4D	4f#	.	4aa
4D	4f#	8dd	8fff#
.	.	8ff#	8ddd
=15	=15	=15	=15
4DD	8e	4gg	8ccc#
.	8c#	.	8eee
4D	8e	4gg	8ggg
.	8g	.	8eee
4D	8e	4gg	8ccc#
.	8c#	.	8eee
=16	=16	=16	=16
2.D	4d	2ff#	2ddd
.	4a	.	.
.	8c#	8gg	8eee
.	8e	8ee	8ccc#
=17	=17	=17	=17
2.D	4d	2ff#	2ddd
.	4a	.	.
.	4b	4gg#	8eee
.	.	.	8bb
=18	=18	=18	=18
2.D	4r	4aa	2ccc
.	4g	4ee	.
.	4a	4ff#	8ddd
.	.	.	8aa
=19	=19	=19	=19
4D	2r	4gg	8ccc
.	.	.	8bb
2r	.	4r	8ddd
.	.	.	8bb
.	4g	4b	8aa
.	.	.	8gg
=20	=20	=20	=20
4D	4a	4cc	8gg
.	.	.	8ff#
2r	4r	4r	8aa
.	.	.	8ff#
.	4f#	4a	8dd
.	.	.	8cc
=21	=21	=21	=21
4D	4g	4b	8b
.	.	.	8dd
2r	2r	8r	8gg
.	.	8dd	8dd
.	.	8b	8b
.	.	8g	8g
=22	=22	=22	=22
8D	8d	8d	8d
8F#	8f#	8f#	8f#
8A	8a	8a	8a
8F#	8f#	8f#	8f#
8D	8d	8d	8d
8C	8c	8c	8c
=23	=23	=23	=23
8BB	8B	8B	8B
8D	8d	8d	8d
8G	8g	8g	8g
8D	8d	8d	8d
8BB	8B	8B	8B
8GG	8G	8G	8G
=24	=24	=24	=24
4D	4d	4d	4d
4DD	4D	2r	4r
4r	4r	.	8dd
.	.	.	8b
=25	=25	=25	=25
4r	4r	4r	8f#
.	.	.	8g
4G	4B	4d	4d
4G	4B	4d	8bb
.	.	.	8gg
=26	=26	=26	=26
4r	4r	4r	8ff#
.	.	.	8aa
4D	4A	4f#	4cc
4D	4A	4f#	8a
.	.	.	8cc
=27	=27	=27	=27
8G	8G	8g	16cc
.	.	.	16b
8r	8r	8r	8r
8E	8E	8g	16dd
.	.	.	16cc
8r	8r	8r	8r
8C	8C	8g	16ee
.	.	.	16cc
8r	8r	8r	8r
=28	=28	=28	=28
4D	4D	2f#	2a
4d	2r	.	.
4r	.	4r	4d
=29	=29	=29	=29
4r	4r	4r	2g
4BB	4G	4d	.
4BB	4f	4d	8b
.	.	.	8g#
=30	=30	=30	=30
4C	4e	4e	8b
.	.	.	8a
2r	2r	4r	4cc
.	.	8e	8cc
.	.	8d	8b
=31	=31	=31	=31
4D	2.f#	2.c	4a
4D	.	.	8a
.	.	.	8g
4D	.	.	8a
.	.	.	8d
=32	=32	=32	=32
4GG	4g	4B	4g
4G	2r	2r	4r
4r	.	.	8bb
.	.	.	8gg
=33	=33	=33	=33
4GG	4B	4d	8dd
.	.	.	8b
2r	4r	4r	8g
.	.	.	8d
.	4B	4d	8b
.	.	.	8g
=34	=34	=34	=34
4GG	4c	4e	8e
.	.	.	8g
2r	4r	4r	8cc
.	.	.	8e
.	4B	4d	8d
.	.	.	8b
=35	=35	=35	=35
4D	4F#	4A	8c
.	.	.	8b
2r	2r	4cc	8a
.	.	.	8ff#
.	.	4b	8gg
.	.	.	8dd
=36	=36	=36	=36
4D	4f#	4a	8cc
.	.	.	8dd
4r	4a	4cc	8cc
.	.	.	8a
4D	4g	4b	8b
.	.	.	8g
=37	=37	=37	=37
4D	4f#	4a	8d
.	.	.	8ff#
2r	2r	2r	8d
.	.	.	8dd
.	.	.	8bb
.	.	.	8gg
=38	=38	=38	=38
4G	4B	4d	8dd
.	.	.	8b
2r	4r	4r	8g
.	.	.	8d
.	4B	4d	8b
.	.	.	8g
=39	=39	=39	=39
4GG	4c	4e	8e
.	.	.	8g
2r	4r	4r	8cc
.	.	.	8e
.	4B	4d	8d
.	.	.	8b
=40	=40	=40	=40
4D	4F#	4A	8c
.	.	.	8b
4r	4r	4cc	8a
.	.	.	8ff#
4GG	4G	4b	8gg
.	.	.	8dd
=41	=41	=41	=41
4C	4c	4ee	8cc
.	.	.	8ee
4D	4B	4dd	8dd
.	.	.	8b
4D	4A	4f#	8cc
.	.	.	8a
=42	=42	=42	=42
4GG	4B	4g	8g
.	.	.	8gg
4G	4r	4r	8g
.	.	.	8r
4r	4f#	4a	8dd
.	.	.	8ddd
=43	=43	=43	=43
2r	4g	4b	8ee
.	.	.	8ddd
.	4f#	4a	8dd
.	.	.	8ddd
4D	4a	4cc	8ff#
.	.	.	8ddd
=44	=44	=44	=44
4G	4g	4b	8bb
.	.	.	8gg
2r	4r	4r	8dd
.	.	.	8b
.	4B	4d	8g
.	.	.	8gg
=45	=45	=45	=45
2r	4c	4e	8a
.	.	.	8gg
.	4B	4d	8g
.	.	.	8gg
4G	4d	4f	8b
.	.	.	8gg
=46	=46	=46	=46
4c	4c	4e	8ee
.	.	.	8cc
2r	2r	2r	8g
.	.	.	8gg
.	.	.	8ee
.	.	.	8cc
=47	=47	=47	=47
4B	4B	4g	8dd
.	.	.	8b
2r	2r	2r	8g
.	.	.	8gg
.	.	.	8dd
.	.	.	8b
=48	=48	=48	=48
4F#	4a	4a	8dd
.	.	.	8cc
4r	4r	4r	8a
.	.	.	8cc
4G	4g	4b	8b
.	.	.	8g
=49	=49	=49	=49
4D	4f#	4a	8d
.	.	.	8dd
4D	4f#	4a	8ff#
.	.	.	8dd
4D	4f#	4a	8aa
.	.	.	8ff#
=50	=50	=50	=50
4D	4f#	4a	8dd
.	.	.	8ddd
2r	2r	2r	8dd
.	.	.	8ddd
.	.	.	8bb
.	.	.	8gg
=51	=51	=51	=51
4G	4g	4b 4d	8dd
.	.	.	8b
2r	2r	2r	8g
.	.	.	8d
.	.	.	8b
.	.	.	8g
=52	=52	=52	=52
4GG	4c	4e	8e
.	.	.	8g
2r	4r	4r	8cc
.	.	.	8e
.	4B	4d	8d
.	.	.	8b
=53	=53	=53	=53
4D	4F#	4A	8c
.	.	.	8b
2r	2r	4cc	8a
.	.	.	8ff#
.	.	4b	8gg
.	.	.	8dd
=54	=54	=54	=54
4D	4f#	4a	8cc
.	.	.	8dd
4D	4a	4cc	8cc
.	.	.	8a
4D	4g	4b	8b
.	.	.	8g
=55	=55	=55	=55
4D	4f#	4a	8d
.	.	.	8ff#
2r	2r	2r	8d
.	.	.	8dd
.	.	.	8bb
.	.	.	8gg
=56	=56	=56	=56
4G	4B	4d	8dd
.	.	.	8b
2r	4r	4r	8g
.	.	.	8d
.	4B	4d	8b
.	.	.	8g
=57	=57	=57	=57
4GG	4c	4e	8e
.	.	.	8g
2r	4r	4r	8cc
.	.	.	8e
.	4B	4d	8d
.	.	.	8b
=58	=58	=58	=58
4D	4F#	4A	8c
.	.	.	8b
4r	4r	4cc	8a
.	.	.	8ff#
4GG	4G	4b	8gg
.	.	.	8dd
=59	=59	=59	=59
4C	4c	4ee	8cc
.	.	.	8ee
4D	4B	4dd	8dd
.	.	.	8b
4D	4A	4f#	8cc
.	.	.	8a
=60	=60	=60	=60
4GG	4G	4g	8g
.	.	.	8gg
2r	2r	2r	8g
.	.	.	4.r
==	==	==	==
*-	*-	*-	*-
!!!RWG1: This file contains only pitch and duration data.
!!!RWG2: Transposing instruments are not transposed.
!!!RWG3: Spines may have incompatible meters.
!!!RWG4: Durations of rests and tied notes may be interpreted.
!!!RWG: Key is interpreted using the Humdrum key tool.
!!!GTL: 6 Quartetti ("Tost III")
!!!AFT: stage1
!!!END: 1997/04/15
!!!KEY: 2668729265
!!!EMD: Converted from MuseData to Humdrum Dec 16, 2000, by Andreas Kornstaedt using muse2kern.
!!!EMD: Manual editing by Craig Sapp, Nov 2001
